frontend/public/Icons/tetra-pack.svg

<svg width="32" height="33" viewBox="0 0 32 33" fill="none" xmlns="http://www.w3.org/2000/svg">
<path d="M14.3087 13.1082L7.60463 9.78838C7.60463 9.78838 7.58907 9.47061 7.88906 9.31062C8.19127 9.15063 12.9421 7.20407 13.3243 7.20407C13.7065 7.20407 15.9442 7.63516 17.573 7.99736C19.2018 8.35956 23.506 9.28396 23.526 9.56617C23.546 9.84837 19.1218 14.3726 19.1218 14.3726L14.3087 13.1082Z" fill="#C3FECE"/>
<path d="M20.423 11.0372C20.423 11.0372 17.612 10.2106 14.8766 9.56838C13.6034 9.2684 9.86133 8.484 9.86133 8.484C9.86133 8.484 10.2591 8.31067 10.5591 8.18401C10.8635 8.05735 11.1057 7.99069 11.1057 7.99069C11.1057 7.99069 13.5456 8.47733 15.3588 8.86398C17.812 9.38617 21.2452 10.4106 21.3252 10.5728C21.4074 10.7328 20.423 11.0372 20.423 11.0372Z" fill="white"/>
<path d="M14.9796 10.2595C14.3818 10.675 14.9685 10.9261 16.0706 11.1839C17.2772 11.4661 18.1972 11.8816 18.9727 11.4305C19.6726 11.0261 17.9594 10.5861 17.1728 10.4172C16.5728 10.2884 15.4418 9.93948 14.9796 10.2595Z" fill="#ACB1B2"/>
<path d="M17.1697 11.095C17.1653 11.095 17.1897 6.22634 17.1897 6.04635C17.1897 5.86636 16.9875 5.70414 17.2097 5.32194C17.4319 4.93974 18.0141 4.97974 18.0141 4.97974C18.0141 4.97974 20.4295 4.27755 21.3939 4.03534C22.3583 3.79313 24.4915 3.23094 24.4915 3.23094L24.6337 4.45088C24.6337 4.45088 22.3983 5.08196 21.2917 5.36416C20.1851 5.64637 18.6763 6.10857 18.6763 6.10857L18.4541 6.31078L18.5185 11.0683C18.5185 11.0683 18.3119 11.2994 17.8497 11.2994C17.4008 11.2972 17.1697 11.095 17.1697 11.095Z" fill="#FFD816"/>
<path d="M24.0949 3.85536C24.1126 4.23534 24.3149 4.47088 24.5548 4.47088C24.7948 4.47088 24.9593 4.16423 24.9237 3.76425C24.8859 3.36649 24.6282 3.18428 24.4082 3.25761C24.1882 3.33094 24.0815 3.57759 24.0949 3.85536Z" fill="#FEB804"/>
<path d="M18.4592 6.42188C18.417 6.42188 18.3748 6.41077 18.337 6.38411L17.1837 5.61526C17.0815 5.54638 17.0549 5.4086 17.1215 5.30639C17.1904 5.20417 17.326 5.17528 17.4304 5.24417L18.5837 6.01302C18.6859 6.0819 18.7126 6.21967 18.6459 6.32189C18.6014 6.38633 18.5303 6.42188 18.4592 6.42188Z" fill="#FEB804"/>
<path d="M18.6362 6.23523C18.5696 6.23523 18.5029 6.20412 18.4584 6.14634C18.1629 5.75303 17.8251 5.30639 17.7651 5.2375C17.6896 5.16417 17.674 5.04418 17.734 4.95307C17.8029 4.85085 17.9385 4.82197 18.0429 4.89085C18.0829 4.91752 18.1051 4.93307 18.814 5.87747C18.8873 5.97524 18.8206 6.11523 18.7229 6.18856C18.6829 6.21967 18.6829 6.23523 18.6362 6.23523Z" fill="#FEB804"/>
<path d="M18.3652 6.60854C18.3541 6.60854 18.343 6.60854 18.3297 6.60632L17.2186 6.43078C17.0986 6.41078 17.0142 6.29745 17.0342 6.17746C17.0542 6.05746 17.1653 5.97302 17.2875 5.99302L18.3986 6.16857C18.5186 6.18857 18.623 6.21079 18.603 6.333C18.5874 6.43966 18.4741 6.60854 18.3652 6.60854Z" fill="#FEB804"/>
<path d="M7.5957 9.76393C7.94902 9.76393 10.7844 10.5083 12.2466 10.7772C13.7087 11.0461 18.124 12.0905 18.2729 12.1194C18.4218 12.1483 18.3929 14.0593 18.3929 14.0593C18.3929 14.0593 20.4817 24.8587 20.4217 25.3676C20.3617 25.8742 18.9907 29.7829 18.9907 29.7829C18.9907 29.7829 18.184 29.9029 16.1264 29.3051C14.0687 28.7074 8.63787 27.2163 8.309 26.7986C7.98013 26.3808 8.189 20.8611 8.01124 17.4613C7.82902 14.0593 7.5957 9.76393 7.5957 9.76393Z" fill="#79DD8A"/>
<path d="M24.0597 27.0364C24.1731 26.6608 23.542 22.6344 23.4531 18.9346C23.3642 15.237 23.682 9.61061 23.5287 9.56616C23.3753 9.52394 18.2734 12.1194 18.2734 12.1194C18.2734 12.1194 18.2512 15.7903 18.3134 19.2523C18.3934 23.7321 18.7511 29.6629 18.9889 29.7829C19.2267 29.9029 21.291 28.7474 21.9132 28.4096C23.0154 27.8119 23.9709 27.3363 24.0597 27.0364Z" fill="#02AB46"/>
<path d="M20.4082 13.8193L20.4193 11.0328L21.3326 10.5839L21.3593 13.6393L20.9371 14.3792L20.4082 13.8193Z" fill="#DBDFE1"/>
<path d="M12.322 14.797C10.3488 14.5859 8.98218 16.3458 9.08884 18.639C9.2155 21.3478 10.9999 23.3432 12.9309 23.741C14.8619 24.1387 16.7329 23.301 16.7729 20.3389C16.8173 17.2524 14.1041 14.9859 12.322 14.797Z" fill="#FEFEFD"/>
<path d="M13.637 17.2702C13.637 17.2702 13.237 15.9258 12.0348 16.2836C10.8327 16.6413 10.1816 19.2568 12.2215 20.4345C14.1814 21.5655 15.9857 19.4901 15.3547 18.1457C14.7814 16.9191 13.637 17.2702 13.637 17.2702Z" fill="#EF5B44"/>
<path d="M13.1791 15.6258C13.0436 15.6747 12.9369 16.228 13.0791 16.7569C13.1858 17.1524 13.5258 17.6946 13.7235 17.6591C13.8813 17.6302 14.0013 17.008 13.8524 16.4858C13.6791 15.8836 13.3369 15.5681 13.1791 15.6258Z" fill="#B8CF17"/>
<path d="M13.1506 18.7457C12.5862 18.5746 11.9507 20.5145 13.0928 21.7233C14.3528 23.0543 15.8238 21.8811 15.7838 21.6233C15.726 21.2655 14.7394 21.0078 14.2528 20.4078C13.7661 19.8034 13.4795 18.8457 13.1506 18.7457Z" fill="#FD8F01"/>
<path d="M11.3459 18.4168C11.3459 18.4168 11.4592 17.568 10.6726 17.6146C9.91263 17.6613 10.0993 18.559 10.0993 18.559C10.0993 18.559 9.46599 18.6346 9.57265 19.3368C9.65265 19.8678 10.2126 19.8612 10.2126 19.8612C10.2126 19.8612 9.59709 20.1034 9.87708 20.8056C10.126 21.43 10.6993 21.1789 10.6993 21.1789C10.6993 21.1789 10.4882 21.7877 10.9859 22.1099C11.4059 22.381 11.7725 22.1522 11.7725 22.1522C11.7725 22.1522 11.7503 22.6721 12.3303 22.7677C13.0325 22.8832 13.3369 22.0277 12.8369 21.6322C12.4569 21.3322 12.1125 21.5655 12.1125 21.5655C12.1125 21.5655 12.1836 21.3989 12.117 21.2078C12.0725 21.0833 12.0014 21.0367 12.0014 21.0367C12.0014 21.0367 12.6169 20.9789 12.5169 20.2789C12.4169 19.5767 11.8014 19.6634 11.8014 19.6634C11.8014 19.6634 12.1592 19.3768 12.017 18.8612C11.877 18.3435 11.3459 18.4168 11.3459 18.4168Z" fill="#A281D0"/>
<path d="M21.0398 14.5948C20.5287 14.5948 18.3488 12.4282 18.3288 12.406C18.2489 12.3127 18.26 12.1727 18.3533 12.0927C18.4466 12.0127 18.5844 12.0238 18.6666 12.1149C18.8066 12.2705 20.4732 13.817 20.9532 14.1148C21.2642 13.6504 22.2753 11.6172 23.1442 9.78171C23.1975 9.6706 23.3308 9.62394 23.4397 9.67505C23.5508 9.72838 23.5975 9.85948 23.5464 9.97058C21.4042 14.497 21.1931 14.557 21.0798 14.5881C21.0665 14.5948 21.0531 14.5948 21.0398 14.5948Z" fill="#2D802D"/>
</svg>

<svg width="32" height="33" fill="none" xmlns="http://www.w3.org/2000/svg"><path d="M14.309 13.108l-6.704-3.32s-.016-.317.284-.477c.302-.16 5.053-2.107 5.435-2.107.383 0 2.62.431 4.249.793 1.629.363 5.933 1.287 5.953 1.57.02.281-4.404 4.806-4.404 4.806l-4.813-1.265z" fill="#C3FECE"/><path d="M20.423 11.037s-2.811-.826-5.546-1.469c-1.274-.3-5.016-1.084-5.016-1.084s.398-.173.698-.3c.305-.127.547-.193.547-.193s2.44.486 4.253.873c2.453.522 5.886 1.547 5.966 1.709.082.16-.902.464-.902.464z" fill="#fff"/><path d="M14.98 10.26c-.598.415-.011.666 1.09.924 1.207.282 2.127.698 2.903.247.7-.405-1.014-.845-1.8-1.014-.6-.129-1.731-.478-2.193-.158z" fill="#ACB1B2"/><path d="M17.17 11.095c-.005 0 .02-4.869.02-5.049 0-.18-.203-.342.02-.724.222-.382.804-.342.804-.342s2.416-.702 3.38-.945c.964-.242 3.098-.804 3.098-.804l.142 1.22s-2.236.631-3.342.913c-1.107.282-2.616.745-2.616.745l-.222.202.064 4.757s-.206.231-.668.231c-.45-.002-.68-.204-.68-.204z" fill="#FFD816"/><path d="M24.095 3.855c.018.38.22.616.46.616.24 0 .404-.307.369-.707-.038-.398-.296-.58-.516-.506-.22.073-.327.32-.313.597zM18.46 6.422a.209.209 0 01-.123-.038l-1.153-.769a.225.225 0 01-.063-.309.222.222 0 01.31-.062l1.153.769a.224.224 0 01.062.309.228.228 0 01-.187.1z" fill="#FEB804"/><path d="M18.636 6.235a.225.225 0 01-.178-.089c-.295-.393-.633-.84-.693-.909a.225.225 0 01-.031-.284.222.222 0 01.309-.062c.04.027.062.042.771.986.073.098.007.238-.091.312-.04.03-.04.046-.087.046z" fill="#FEB804"/><path d="M18.365 6.609c-.01 0-.022 0-.035-.003l-1.111-.175a.221.221 0 11.069-.438l1.11.176c.12.02.225.042.205.164-.016.107-.129.276-.238.276z" fill="#FEB804"/><path d="M7.596 9.764c.353 0 3.188.744 4.65 1.013 1.463.27 5.878 1.314 6.027 1.342.149.03.12 1.94.12 1.94s2.089 10.8 2.029 11.309c-.06.506-1.431 4.415-1.431 4.415s-.807.12-2.865-.478c-2.057-.598-7.488-2.089-7.817-2.506-.329-.418-.12-5.938-.298-9.338-.182-3.402-.415-7.697-.415-7.697z" fill="#79DD8A"/><path d="M24.06 27.036c.113-.375-.518-4.402-.607-8.101-.089-3.698.229-9.324.076-9.369-.154-.042-5.256 2.553-5.256 2.553s-.022 3.671.04 7.133c.08 4.48.438 10.41.676 10.53.238.12 2.302-1.035 2.924-1.372 1.102-.598 2.058-1.074 2.147-1.374z" fill="#02AB46"/><path d="M20.408 13.82l.011-2.787.914-.45.026 3.056-.422.74-.529-.56z" fill="#DBDFE1"/><path d="M12.322 14.797c-1.973-.211-3.34 1.549-3.233 3.842.127 2.709 1.91 4.704 3.842 5.102 1.93.398 3.802-.44 3.842-3.402.044-3.087-2.669-5.353-4.451-5.542z" fill="#FEFEFD"/><path d="M13.637 17.27s-.4-1.344-1.602-.986c-1.202.357-1.853 2.973.187 4.15 1.96 1.131 3.764-.944 3.133-2.288-.574-1.227-1.718-.876-1.718-.876z" fill="#EF5B44"/><path d="M13.18 15.626c-.136.049-.243.602-.1 1.13.106.396.446.939.643.903.158-.029.278-.651.13-1.173-.174-.602-.516-.918-.674-.86z" fill="#B8CF17"/><path d="M13.15 18.746c-.564-.171-1.2 1.769-.057 2.977 1.26 1.331 2.73.158 2.69-.1-.057-.358-1.044-.615-1.53-1.215-.487-.605-.774-1.562-1.102-1.662z" fill="#FD8F01"/><path d="M11.346 18.417s.113-.849-.673-.802c-.76.046-.574.944-.574.944s-.633.076-.526.778c.08.53.64.524.64.524s-.616.242-.336.945c.249.624.822.373.822.373s-.21.609.287.93c.42.272.787.043.787.043s-.023.52.557.616c.703.115 1.007-.74.507-1.136-.38-.3-.724-.067-.724-.067s.07-.166.004-.357c-.045-.125-.116-.171-.116-.171s.616-.058.516-.758c-.1-.702-.716-.616-.716-.616s.358-.286.216-.802c-.14-.518-.671-.444-.671-.444z" fill="#A281D0"/><path d="M21.04 14.595c-.511 0-2.691-2.167-2.711-2.189a.222.222 0 01.024-.313.224.224 0 01.314.022c.14.155 1.806 1.702 2.286 2 .311-.465 1.322-2.498 2.191-4.333a.224.224 0 01.296-.107.223.223 0 01.106.296c-2.142 4.526-2.353 4.586-2.466 4.617-.013.007-.027.007-.04.007z" fill="#2D802D"/></svg>
